X:1
T:Falmouth
T:F Major, F# minor        Jeremiah Ingalls, 1805
T:Transcribed from Ingalls' Christian Harmony, 1805.
T:Anonymous Author, Unique to Christian Harmony, 1805
%%score [ 1 2 3 ]
L:1/8
Q:1/4=100
M:2/4
K:F
V:1 treble nm="Tr." snm="Tr."
V:2 treble-8 nm="T." snm="T."
V:3 bass nm="B." snm="B."
V:1
 c2 A2 | G2 G2 | A2 AG | F2 F z | F2 FG | A3 B | c2 d/c/B/A/ | G3 z | F2 F2 | B2 B2 | A2 AB | %11
 c2 c z | B2 A2 | c2 cA | B2 A2 | A3 z ||[M:4/4] c6 B2 | A4 A2 z2 | f6 d2 | c4 c2 z2 | =B6 d2 | %21
 e4 [ce]2 z2 ||[M:2/4] c2 A2 | B3 A | d2 c2 | c3 z | z4 | z4 | %28
"_Glo – ry,   glo – ry    to    the  Lord.         Glo     –      ry,     glo     –   ry     to  the Lord." c3/2 c/ c F | %29
 A3/2 A/ A z | A3 F | f>gf d | c2 c2 | c4 | A2 c2 | c2 A2 | d2 B2 | G2 G z | A2 F2 | B2 AB | %40
 c2 c2 | c3 z | c2 c2 | d3 d | c2 dB | G2 G z | A2 A2 | c2 A2 | c2 c2 | d3 z | c2 cB | c2 c z | %52
 A2 AG | F2 F z | c2 AB | c2 c z | f2 f2 | c2 c2 | f2 e2 | f4 ||[K:A] z4 | f2 ^e2 | f2 ^e2 | %63
 d2 cB | c2 c z | e2 e2 | B2 c2 | f2 ed | c3 z | c2 c2 | c2 c2 | ed cB | c2 c z | f2 c2 | ^e2 ec | %75
 d2 c2 | c3 z | c3 ^B | c c z2 | edc e | e e z2 | (f e2) d | c c z2 | (e>dc>B | A>B c) z | (Acec | %86
 B) B z2 | c c c2- | c2 z2 | e3 e | c3 e | f2 c2 | c4 ||[M:4/4] c2 c2 c2 f2 | ed cB c2 c z | %95
 f3 f e2 e2 | %96
"_vast  designs,                                      Love unbounded.   matchless wisdom,                               Love unbounded. matchless wisdom," c2 [cf]2 [cf]4- | %97
 [cf]4 z4 | z8 | e2 d2 c2 B2 | A2 G2 F2 F z | z8 | c2 B2 c2 f2 | e2 d2 c2 c z | z8 | c2 B2 A2 c2 | %106
 (c3 d ^e2) c2 | c6 z2 ||[M:2/4] A3 c/d/ | e2 e z | c3 B | c2 c z | cBA F | G2 G z | c2 c2 | e3 e | %116
 f2 ed | c3 z | c2 A2 | c2 A2 | c>de c | c4 ||[K:F][M:4/4] c2 A2 G2 F2 | c2 d2 c2 c z | %124
 A2 A2 c2 c2 | F2 G2 A3 z | c2 A2 A2 c2 | cB A2 f2 f z | c2 A2 c2 f2 | [cf]2 [ce]2 [cf]3 z | %130
 (3AGA c2 (3cdc A z | %131
"_Hap –  py   pros  – pect,     Hap – py     pros  –  pect,   Glo    –    ry,   glory,  glo      –          –      ry,       glo    –          –     ry,   Glo     –   ry" (3AGA c2 (3cdc A z | %132
 Ac Gc =B2 !fermata!c2 | (A3 B c2) c2 | c2 B2 (A2 d2 | c2 c2 c2) c z | c8- | c6 c2 | %138
 (d2 c2 d2) e2 | f2 e2 (d4 | c6) c2 | c8 |] %142
V:2
"_Hal–le–lu–jah through  the  nations,      Eve – ry   heart   and  eve – ry            voice,      In  the  God  of  our  sal – va – tion     Let  us" F2 A2 | %1
 c2 c2 | c2 (3cdB | A2 A z | A2 AG | F3 G | A2 =B2 | c3 z | d2 d2 | d2 f2 | c2 cB | A2 A z | %12
 d2 c2 | %13
"_tri – umph and re – joice.          Sound  his  praises,   Sound  his  praises,    Sound  his  praises,          Glory,   glo – ry    to  the   Lord." a2 f2 | %14
 d2 ^c2 | d3 z ||[M:4/4] A6 G2 | F4 F2 z2 | c6 B2 | A4 A2 z2 | d6 d2 | c4 c2 z2 ||[M:2/4] f2 c2 | %23
 d3 c | f2 e2 | f3 z | z4 | %27
"_Glo–ry, glo – ry   to    the  Lord.        Glo        –         ry,     glo     –          –          –      ry     to  the Lord.  He who made us" c3/2 c/ c F | %28
 A3/2 A/ A z | c3 A | (f>gfd | c>dc) B | A2 G2 | F4 | F2 A2 | A2 F2 | %36
"_reigns triumphant,    Sways the scepter,  rules the world.     At   his  frown the  proudest  monarchs    From their lofty thrones are hurled." B2 d2 | %37
 c2 c z | f2 c2 | d2 f2 | g2 e2 | f3 z | f2 A2 | B3 f | e2 d2 | c2 c z | c2 c2 | f2 c2 | A2 A2 | %49
 A3 z | %50
"_O  al – migh –ty,        O     al – migh –ty,        O    al – migh –ty,    how unbounded is his power.                  By his smiles the  poor  op –" F2 FG | %51
 A2 A z | A2 AB | c2 c z | c2 de | f2 f z | c2 c2 | f2 c2 | A2 G2 | F4 ||[K:A] z4 | F2 c2 | d2 c2 | %63
 f2 FG | %64
"_–pres–sed,  Destined slaves are  set  on  high.     What he  willeth  none   can     hin – der,    Nor may  a – ny       ask    him   why." A2 A z | %65
 B2 B2 | B2 E2 | A2 B2 | c3 z | e2 e2 | e2 f2 | cB cf | e2 e z | c2 f2 | g2 a2 | gf ^e2 | f3 z | %77
"_Stand     a   –   do–ring,       Stand       a–do–ring,       Stand      a – do–ring,      Trem         –         ble,             trem          –        ble" FGA B/A/ | %78
 G G z2 | AGA B | c c z2 | cBc f | ^e e z2 | c4- | c c z2 | e4- | e e z2 | %87
"_and  rejoice,           Trem        –      ble,    trem      –       ble    and  rejoice.     While his po–wer reigns un–ri – valed,     Moving  on his" f f f2- | %88
 f2 z2 | c/d/c/B/A G | F/G/A/B/c B | A2 G2 | F4 ||[M:4/4] F2 G2 A2 c2 | B2 A2 G2 G z | c3 d c2 B2 | %96
"_vast  designs,                                                                      Love unbounded. matchless wisdom,                               Love unbounded." A2 c2 [Fc]4- | %97
 [Fc]4 z4 | z8 | z8 | c2 B2 c2 f2 | e2 d2 c2 c z | z8 | c2 B2 A2 F2 | %104
"_matchless wisdom, Guide and in full glo      –   ry  shine.            Hal – le  –  lu – jah,   Hal – le  –  lu – jah,     Hal    –    le  – lu – jah" d2 cB c2 c z | %105
 A2 B2 c2 f2 | (e3 d c2) ^e2 | f6 z2 ||[M:2/4] c3 A | B2 B z | A3 F | G2 G z | ABc f | ^e2 c z | %114
"_Who can with our  God  com – pare?   Who can with our God           com – pare?           Higher still the prospect rises,    Jesus Christ sits" f2 c2 | %115
 B3 c | d2 cB | c3 z | f2 c2 | f2 c2 | e>dc ^e | f4 ||[K:F][M:4/4] F2 c2 d2 c2 | f2 d2 e2 c z | %124
 f2 f2 c2 c2 | %125
"_on  the  throne.   Sig–nal  fa – vors  for     re  –  li  –  gion      In    his     cha  –  rac   –   ter  are  shown.    Hap   –   py    pros  –  pect," d2 e2 f3 z | %126
 f2 c2 f2 g2 | fe dc d2 d z | f2 c2 Ac (3dcB | A2 G2 A3 z | (3cde f2 (3gfe f z | %131
"_Hap –  py   pros  – pect,     Hap – py     pros  –  pect,   Glo    –    ry,   glory,  glo      –          –      ry,       Glo   –  ry,  glo  –  ry,  Glo    –   ry" (3cde f2 (3gfe f z | %132
 cf ec (3dcd !fermata!c2 | (c3 B A2) G2 | A2 d2 (c2 f2 | g2 ag f2) f z | (F2 A4) F2 | (A2 c4) A2 | %138
 (d2 f4) c2 |"_be  to  God _______   on    high." d2 g2 (f4 | e6) e2 | f8 |] %142
V:3
 F,2 F,2 | C,2 C,2 | F,2 F,G, | A,2 A, z | C2 CB, | A,3 G, | F,2 G,2 | C,3 z | B,,2 B,,2 | %9
 B,,2 B,,2 | F,2 F,G, | A,2 A, z | G,2 A,2 | F,2 F,2 | G,2 A,2 | D,3 z ||[M:4/4] F,6 D,2 | %17
 F,4 F,2 z2 | F,6 G,2 | A,4 A,2 z2 | G,6 G,2 | C,4 C,2 z2 ||[M:2/4] F,2 A,2 | G,3 A, | B,2 C2 | %25
 F,3 z | %26
"_Glo–ry,  glo–ry   to the Lord.        Glo        –        ry,    glo           –          –          –          –          –         ry    to  the  Lord." C3/2 C/ C F, | %27
 A,3/2 A,/ A, z | F,3 C, | F,4- | F,4- | F,3 F, | F,2 C,2 | [F,,F,]4 | F,2 F,2 | F,2 F,2 | %36
 G,2 G,2 | C,2 C, z | F,2 A,2 | B,2 D2 | C2 C,2 | F,3 z | F,2 F,2 | D,3 F, | G,2 G,2 | C,2 C, z | %46
 F,2 F,2 | F,2 F,2 | A,2 A,2 | D,3 z | F,2 C,2 | F,2 F, z | C2 CB, | A,2 A, z | A,2 A,G, | %55
 F,2 F, z | F,2 F,2 | F,2 F,2 | F,2 C,2 | F,4 ||[K:A] z4 | F,2 C,2 | B,,2 C,2 | D,2 E,2 | %64
 A,,2 A,, z | E,2 E,2 | E,2 C,2 | F,2 G,2 | C,3 z | C,2 C,2 | C,2 F,2 | A,G, A,B, | C2 C z | %73
 F,2 F,2 | C2 A,2 | B,2 C2 | F,3 z | F,C,F, G, | C, C, z2 | CB,A, E, | A, A, z2 | F,G,A, B, | %82
 C C, z2 | (C2 C,2 | F,) F, z2 | (A,4 | E,) E, z2 | F, F, F,2- | F,2 z2 | A,3 E, | F,3 G, | %91
 F,2 C,2 | [F,,F,]4 ||[M:4/4] F,2 C,2 F,2 A,2 | E,2 F,2 C,2 C, z | F,3 G, A,2 E,2 | %96
"_vast  designs,          Love unbounded. matchless wisdom,                               Love unbounded. matchless wisdom," F,2 F,2 F,4- | %97
 F,4 z4 | F,2 C,2 F,2 A,2 | E,2 F,2 C,2 C, z | z8 | C2 B,2 A,2 G,2 | F,2 G,2 C,2 C, z | z8 | z8 | %105
 F,2 G,2 A,2 F,2 | (A,3 B, C2) C,2 | F,6 z2 ||[M:2/4] A,3 F, | E,2 E, z | F,3 E, | C,2 C, z | %112
 F,G,A, B, | C2 C, z | F,2 A,2 | E,3 C, | F,2 G,2 | C,3 z | F,2 F,2 | F,2 F,2 | A,>B,C C, | F,4 || %122
[K:F][M:4/4] F,2 F,2 B,2 A,2 | F,2 B,2 C2 C, z | F,2 F,2 A,2 A,2 | B,2 G,2 F,3 z | %126
 F,2 F,2 F,2 C,2 | F,G, A,2 B,2 B, z | A,2 A,2 A,2 B,2 | C2 C,2 F,3 z | F,2 F,2 C,2 F, z | %131
"_Hap –  py   pros  – pect,     Hap – py     pros  –  pect,   Glo    –    ry,  glory,  glory,    glory,     glory,       Glo     –          –    ry,   Glo    –   ry" F,2 F,2 C,2 F, z | %132
 F,2 G,2 G,2 !fermata!C,2 | F,6 C,2 | F,2 G,2 A,2 F,2 | C,2 C,2 F,2 F, z | F,8- | F,6 F,2 | %138
 (B,2 A,2 B,2) C2 | F,2 E,2 (B,,4 | C,6) C,2 | [F,,F,]8 |] %142

